X: 130280
T: Miller of Draughin
S: Paddy O'Brien (Offaly)
Z: B.Black
R: reel
M: 4/4
L: 1/8
K: Edor
Bd | eE E2 DEB,E | DEGA BAGA | GE E2 DEB,E |\
DEGA BABd |
eE E2 DEB,E |DEGA BAGA |GE E2 DEB,E |DEGA BdBA ||
G2 BG dGBG |Beef gedB |G2 BG dGBA |GEGA BdBA |
G2 BG dGBG |Beef gfeg |faef dedB |GEGA BABd ||
